X: 1
T: Aitken Drum
C: RSCDS Graded
O: 1800
%date: 1800 Gow Fourth Collection
S: T. Traub 2-22-2013
R: march, reel
M: 4/4
K: G
L: 1/8
GA \
| "G" B2 B2 cBAG | "C" E3 F G2 E2 | D2 D2 E2 D2 | "A" B2 A2 "D" A2 GA |
| "G" B2 B2 "G7" cBAG | "C" E3 F G2 E2 | "D" D2 D2 E2 F2 | "G" G6 |]
GA \
| "G" B2 B2 B2 AG | "C" c3 d e2 c2 | "G" B2 d2 "Em" B2 G2 | "A" B2 A2 A2 GA |
| "G" B2 Bd cBAG | "C" E3 F G2 E2 | "D" D2 D2 E2 F2 | "G" G6 |]
